packages/icons/src/assets/computer-cube.svg

<svg xmlns="http://www.w3.org/2000/svg" width="25" height="24"><path fill-rule="evenodd" d="m11.291 4.404 5.243-3.04 5.244 3.04v5.394l-5.244 3.04-5.243-3.04zm5.243 2.165 3.004-1.738-3.004-1.737-3.003 1.737zm-3.745-.434v2.801l2.996 1.738V7.873zm4.495 4.532 2.996-1.738V6.127l-2.997 1.738zm1.498 6.03V12.74h1.498v3.948a2.05 2.05 0 0 1-2.045 2.045h-4.81l.375 2.247h1.236v1.498h-7.49V20.98h1.236l.374-2.247H4.347a2.05 2.05 0 0 1-2.045-2.045V8.801c0-1.123.914-2.044 2.045-2.044h5.446v1.498H4.347A.55.55 0 0 0 3.8 8.8v7.896c0 .3.248.546.547.546h13.888a.55.55 0 0 0 .547-.546m-8.48 4.292h1.978l-.375-2.247h-1.228z" clip-rule="evenodd"/></svg>

<svg width="100%" height="100%" viewBox="0 0 24 24" version="1.1" xmlns="http://www.w3.org/2000/svg" xmlns:xlink="http://www.w3.org/1999/xlink" xml:space="preserve" style="fill-rule:evenodd;clip-rule:evenodd;stroke-linejoin:round;stroke-miterlimit:2;"><g transform="matrix(1,0,0,1,-0.04,0.079)"><path d="M11.291,4.404L16.534,1.364L21.778,4.404L21.778,9.798L16.534,12.838L11.291,9.798L11.291,4.404ZM16.534,6.569L19.538,4.831L16.534,3.094L13.531,4.831L16.534,6.569ZM12.789,6.135L12.789,8.936L15.785,10.674L15.785,7.873L12.789,6.135ZM17.284,10.667L20.28,8.929L20.28,6.127L17.283,7.865L17.284,10.667ZM18.782,16.697L18.782,12.74L20.28,12.74L20.28,16.688C20.277,17.809 19.356,18.73 18.235,18.733L13.425,18.733L13.8,20.98L15.036,20.98L15.036,22.478L7.546,22.478L7.546,20.98L8.782,20.98L9.156,18.733L4.347,18.733C3.226,18.73 2.305,17.809 2.302,16.688L2.302,8.801C2.302,7.678 3.216,6.757 4.347,6.757L9.793,6.757L9.793,8.255L4.347,8.255C4.048,8.257 3.803,8.501 3.8,8.8L3.8,16.696C3.8,16.996 4.048,17.242 4.347,17.242L18.235,17.242C18.534,17.24 18.78,16.995 18.782,16.696M10.302,20.988L12.28,20.988L11.905,18.741L10.677,18.741L10.302,20.988Z"/></g></svg>
